images/process1.svg

<?xml version="1.0" encoding="UTF-8" standalone="no"?>
<svg width="90px" height="90px" viewBox="0 0 90 90" version="1.1" xmlns="http://www.w3.org/2000/svg" xmlns:xlink="http://www.w3.org/1999/xlink" xmlns:sketch="http://www.bohemiancoding.com/sketch/ns">
    <!-- Generator: Sketch 3.3.3 (12081) - http://www.bohemiancoding.com/sketch -->
    <title>process1</title>
    <desc>Created with Sketch.</desc>
    <defs></defs>
    <g id="Page-1" stroke="none" stroke-width="1" fill="none" fill-rule="evenodd" sketch:type="MSPage">
        <g id="process1" sketch:type="MSArtboardGroup" fill="#CD2122">
            <path d="M38.0087665,63.7855946 C37.9829749,63.7845629 37.9633732,63.7845629 37.9417082,63.7835313 C36.6665698,63.7247263 36.3405636,62.5290262 35.9959874,61.2631728 C35.4997563,59.4402201 34.6692657,56.3895856 31.7723494,53.1346814 C26.7615507,47.4997252 25.2883326,39.497097 28.104779,33.2204449 C30.6251375,27.6050903 36.1837505,24.384231 43.3538247,24.384231 C50.523899,24.384231 56.082512,27.6050903 58.6028705,33.2204449 C61.4193169,39.497097 59.9471304,47.4997252 54.9353001,53.1346814 C51.6896809,56.7826501 50.0441746,58.9635907 50.0441746,59.6156032 C50.0441746,60.2294441 49.6335718,60.7659101 49.0403642,60.9268499 C38.5854674,63.759803 38.2357329,63.7855946 38.0087665,63.7855946 L38.0087665,63.7855946 Z M43.3548564,27.0995743 C37.2123208,27.0995743 32.6760882,29.668421 30.5828392,34.3325801 C28.1955655,39.6508151 29.4882422,46.4814715 33.8016351,51.329267 C37.1235976,55.0638956 38.0943947,58.6344894 38.6164174,60.5523554 C38.6432407,60.6544902 38.673159,60.7628151 38.7030773,60.8701083 C40.498175,60.4130805 44.5185749,59.3370536 47.5165945,58.5261646 C47.9529889,57.2572162 49.2920906,55.3950602 52.9080777,51.329267 C57.2214706,46.4814715 58.5151789,39.6508151 56.1268736,34.3325801 C54.0336246,29.668421 49.497392,27.0995743 43.3548564,27.0995743 Z M43.0133752,77.9875 C42.4067559,77.9875 41.854815,77.5789605 41.6990335,76.964088 C41.5143654,76.2377955 41.9538548,75.4980915 42.6801473,75.3134234 L49.3993838,73.6049855 C50.1225812,73.4234124 50.8653802,73.8587752 51.0500483,74.5860993 C51.2347164,75.3123917 50.795227,76.0520958 50.0689346,76.2367639 L43.3496981,77.9452017 C43.2372465,77.9730567 43.1237634,77.9875 43.0133752,77.9875 Z M37.7673568,71.7428296 C37.1638326,71.7428296 36.6129232,71.3363534 36.4550784,70.7266392 C36.2662837,70.0003468 36.7016465,69.259611 37.4269072,69.0718479 L49.3921621,65.9655035 C50.1205179,65.7715504 50.8591903,66.2131032 51.0469534,66.9373323 C51.2357481,67.6636247 50.8003853,68.4043604 50.0751246,68.5921235 L38.1098697,71.6984679 C37.9953548,71.7283862 37.8798083,71.7428296 37.7673568,71.7428296 Z M37.7673568,75.6115747 C37.1638326,75.6115747 36.6129232,75.2050985 36.4550784,74.5953843 C36.2662837,73.8690919 36.7016465,73.1283561 37.4269072,72.940593 L49.3921621,69.8342486 C50.1205179,69.6413272 50.8591903,70.0818483 51.0469534,70.8060774 C51.2357481,71.5323698 50.8003853,72.2731056 50.0751246,72.4608686 L38.1098697,75.5672131 C37.9953548,75.5971314 37.8798083,75.6115747 37.7673568,75.6115747 Z M37.7673568,67.8740844 C37.1638326,67.8740844 36.6129232,67.4676083 36.4550784,66.8578941 C36.2662837,66.1316016 36.7016465,65.3908659 37.4269072,65.2031028 L49.3921621,62.0967584 C50.1205179,61.9028053 50.8591903,62.3433264 51.0469534,63.0685872 C51.2357481,63.7948796 50.8003853,64.5356153 50.0751246,64.7233784 L38.1098697,67.8297228 C37.9953548,67.8596411 37.8798083,67.8740844 37.7673568,67.8740844 Z M20.5086269,43.4194887 L14.9634256,43.4194887 C14.2134049,43.4194887 13.605754,42.8118378 13.605754,42.061817 C13.605754,41.3117963 14.2144365,40.7041454 14.9634256,40.7041454 L20.5086269,40.7041454 C21.2586476,40.7041454 21.8662985,41.3117963 21.8662985,42.061817 C21.8662985,42.8118378 21.257616,43.4194887 20.5086269,43.4194887 Z M23.6077497,31.8462666 C23.3766566,31.8462666 23.1435003,31.7874617 22.9299455,31.6636618 L18.1285749,28.8905453 C17.4796574,28.5160508 17.2568177,27.6855602 17.6323439,27.035611 C18.0078701,26.3856618 18.8393924,26.1659171 19.4872782,26.53938 L24.2886488,29.3124965 C24.9375663,29.686991 25.160406,30.5174816 24.7848799,31.1674308 C24.5331535,31.6027936 24.0771574,31.8462666 23.6077497,31.8462666 Z M32.0828806,23.373199 C31.6145046,23.373199 31.1585085,23.129726 30.9057505,22.6943632 L28.132634,17.8929926 C27.7581394,17.2440751 27.9809792,16.4125528 28.628865,16.0380582 C29.2767508,15.6635637 30.1082731,15.8853718 30.4837993,16.5342893 L33.2569158,21.3356599 C33.6314103,21.9845774 33.4085706,22.8160997 32.7606848,23.1905942 C32.5471301,23.3143941 32.3139737,23.373199 32.0828806,23.373199 Z M43.6561027,20.2720129 C42.906082,20.2720129 42.2984311,19.664362 42.2984311,18.9143413 L42.2984311,13.3701716 C42.2984311,12.6201509 42.9071136,12.0125 43.6561027,12.0125 C44.4050917,12.0125 45.0137743,12.6201509 45.0137743,13.3701716 L45.0137743,18.9143413 C45.0137743,19.664362 44.4061234,20.2720129 43.6561027,20.2720129 Z M55.2293247,23.3742306 C54.9982317,23.3742306 54.7650753,23.3154257 54.5515206,23.1916259 C53.9026031,22.8171314 53.6797634,21.9866407 54.0552896,21.3366916 L56.828406,16.535321 C57.2039322,15.8864034 58.0354545,15.6645954 58.6833404,16.0390899 C59.3322579,16.4135844 59.5550976,17.2440751 59.1795714,17.8940242 L56.4064549,22.6953948 C56.1536969,23.1307576 55.6977008,23.3742306 55.2293247,23.3742306 Z M63.7044557,31.8472983 C63.2360796,31.8472983 62.7800835,31.6038253 62.5273255,31.1684625 C62.152831,30.519545 62.3756707,29.6880227 63.0235566,29.3135281 L67.8249272,26.5404116 C68.4717813,26.1659171 69.3043353,26.3877252 69.6798615,27.0366427 C70.054356,27.6855602 69.8315163,28.5170825 69.1836304,28.891577 L64.3822598,31.6646935 C64.1687051,31.7884934 63.9345171,31.8472983 63.7044557,31.8472983 Z M68.503763,57.7678905 C68.2726699,57.7678905 68.0395136,57.7090856 67.8259588,57.5852858 L63.0245882,54.8121693 C62.3756707,54.4376747 62.152831,53.6071841 62.5283572,52.9572349 C62.9038834,52.3083174 63.7354057,52.0844461 64.3832915,52.4610039 L69.1846621,55.2341204 C69.8335796,55.6086149 70.0564193,56.4391056 69.6808931,57.0890547 C69.4291668,57.5244175 68.972139,57.7678905 68.503763,57.7678905 Z M18.8084424,57.7658272 C18.3400663,57.7658272 17.8840702,57.5223542 17.6313122,57.0869914 C17.2568177,56.4370422 17.4796574,55.6065516 18.1275433,55.2320571 L22.9289139,52.4589406 C23.5767997,52.0834144 24.408322,52.3062541 24.7838482,52.9551716 C25.1583427,53.6051208 24.935503,54.4356114 24.2876171,54.8101059 L19.4862465,57.5832224 C19.2726918,57.7080539 19.0395354,57.7658272 18.8084424,57.7658272 Z" id="Shape" sketch:type="MSShapeGroup"></path>
        </g>
    </g>
</svg>

<svg width="90" height="90" xmlns="http://www.w3.org/2000/svg"><g id="Page-1" stroke="none" stroke-width="1" fill="none" fill-rule="evenodd"><g id="process1" fill="#CD2122"><path d="M38.009 63.786l-.067-.002c-1.275-.06-1.601-1.255-1.946-2.52-.496-1.824-1.327-4.874-4.224-8.13-5.01-5.634-6.484-13.637-3.667-19.914 2.52-5.615 8.079-8.836 15.249-8.836s12.729 3.221 15.249 8.836c2.816 6.277 1.344 14.28-3.668 19.915-3.245 3.648-4.89 5.829-4.89 6.48a1.36 1.36 0 01-1.005 1.312c-10.455 2.833-10.804 2.859-11.031 2.859zM43.355 27.1c-6.143 0-10.679 2.568-12.772 7.233-2.387 5.318-1.095 12.148 3.219 16.996 3.322 3.735 4.292 7.305 4.814 9.223l.087.318a836.134 836.134 0 008.814-2.344c.436-1.269 1.775-3.13 5.391-7.197 4.313-4.848 5.607-11.678 3.219-16.996-2.093-4.665-6.63-7.233-12.772-7.233zm-.342 50.887a1.358 1.358 0 01-.333-2.674l6.72-1.708a1.358 1.358 0 01.67 2.632l-6.72 1.708a1.404 1.404 0 01-.337.043zm-5.246-6.244a1.358 1.358 0 01-.34-2.671l11.965-3.106a1.352 1.352 0 011.655.971 1.356 1.356 0 01-.972 1.655L38.11 71.698c-.115.03-.23.045-.343.045zm0 3.869a1.358 1.358 0 01-.34-2.671l11.965-3.107a1.353 1.353 0 011.655.972 1.356 1.356 0 01-.972 1.655L38.11 75.567c-.115.03-.23.045-.343.045zm0-7.738a1.358 1.358 0 01-.34-2.67l11.965-3.107a1.351 1.351 0 011.655.972 1.356 1.356 0 01-.972 1.654L38.11 67.83c-.115.03-.23.044-.343.044zM20.51 43.42h-5.546a1.357 1.357 0 110-2.715h5.546a1.357 1.357 0 110 2.715zm3.099-11.573c-.231 0-.464-.059-.678-.182l-4.801-2.773a1.357 1.357 0 111.358-2.352l4.802 2.773a1.357 1.357 0 01-.681 2.534zm8.475-8.473a1.36 1.36 0 01-1.177-.679l-2.773-4.801a1.36 1.36 0 01.496-1.855 1.36 1.36 0 011.855.496l2.773 4.802a1.36 1.36 0 01-1.174 2.037zm11.573-3.101c-.75 0-1.358-.608-1.358-1.358V13.37a1.358 1.358 0 012.716 0v5.544c0 .75-.608 1.358-1.358 1.358zm11.573 3.102a1.357 1.357 0 01-1.174-2.038l2.773-4.8a1.357 1.357 0 112.351 1.359l-2.773 4.8a1.36 1.36 0 01-1.177.68zm8.475 8.473a1.36 1.36 0 01-.68-2.534l4.8-2.773a1.36 1.36 0 011.856.497 1.36 1.36 0 01-.496 1.855l-4.802 2.773a1.35 1.35 0 01-.678.182zm4.8 25.92c-.231 0-.464-.058-.678-.182l-4.801-2.773a1.357 1.357 0 111.358-2.351l4.802 2.773a1.357 1.357 0 01-.681 2.534zm-49.696-.001a1.36 1.36 0 01-.68-2.534l4.8-2.773a1.358 1.358 0 011.36 2.351l-4.802 2.773a1.336 1.336 0 01-.678.183z" id="Shape"/></g></g></svg>
